!!!OTL: Prelude No. 5 in D major
**kern	**kern
*Icemba	*Icemba
*staff2	*staff1
*>[A,A,B,B]	*>[A,A,B,B]
*>norep[A,B]	*>norep[A,B]
*>A	*>A
*clefF4	*clefG2
*k[f#c#]	*k[f#c#]
*D:	*D:
*M2/2	*M2/2
*MM104	*MM104
=1-	=1-
*^	*
4D/	4DD\	12r
.	.	24d/LL
.	.	24e/
.	.	24f#/
.	.	24g/JJ
4r	4r	12a/L
.	.	12f#/
.	.	12a/J
2r	2r	12dd\L
.	.	12a\
.	.	12dd\J
.	.	12ff#\L
.	.	12dd\
.	.	12ff#\J
*v	*v	*
=2	=2
*	*^
4r	4aa/	4r
4d\	4aa/	4ff#\
4a\	(8aa/L	8ff#\L
.	8gg/)	8ee\
4A\	(8gg/	8ee\
.	8ff#/J)	8dd\J
=3	=3	=3
4d\	4ff#/	12dd\L
.	.	24D\L
.	.	24E\
.	.	24F#\
.	.	24G\JJ
4r	4r	12A/L
.	.	12F#/
.	.	12A/J
2r	2r	12d\L
.	.	12A\
.	.	12d\J
.	.	12f#\L
.	.	12d\
.	.	12f#\J
=4	=4	=4
4r	4r	4a\
4D\	4ff#/	4a\
4A\	8ff#/L	(8a\L
.	8ee/	8g\)
4AA/	8ee/	(8g\
.	8dd/J	8f#\J)
=5	=5	=5
8.D/L	8dd/	12f#\L
.	.	24f#\L
.	8r	24e\
.	.	24d\
16DD/Jk	.	.
.	.	24c#\JJ
8.D\L	4r	12B\L
.	.	12d\
.	.	12B\J
16D\Jk	.	.
4D\	12r	8G#\
.	24e/LL	.
.	24f#/	8r
.	24g#/	.
.	24a/JJ	.
12r	12b/L	4r
24E/LL	12g#/	.
24D/	.	.
24C#/	12b/J	.
24BB/JJ	.	.
=6	=6	=6
8.C#/L	8ee/	12r
.	.	24e\LL
.	8r	24d\
.	.	24c#\
16CC#/Jk	.	.
.	.	24B\JJ
8.C#/L	4r	12A\L
.	.	12c#\
.	.	12A\J
16C#/Jk	.	.
4C#/	12r	8F#\
.	24d/LL	.
.	24e/	8r
.	24f#/	.
.	24g#/JJ	.
12r	12a/L	4r
24D/LL	12f#/	.
24C#/	.	.
24BB/	12a/J	.
24AA/JJ	.	.
=7	=7	=7
12BB\L	8.dd/L	4r
24F#\L	.	.
24E\	.	.
24D\	.	.
.	16f#/Jk	.
24C#\JJ	.	.
12BB/L	8.dd/L	8.f#\L
12D/	.	.
12BB/J	.	.
.	16dd/Jk	16f#\Jk
12GG#/L	4dd/	4e\
12BB/	.	.
12GG#/J	.	.
12EE/L	12r	4r
12GG#/	24ee/LL	.
.	24dd/	.
12EE/J	24cc#/	.
.	24b/JJ	.
=8	=8	=8
12AA/L	12cc#/L	1r
12C#/	24a/L	.
.	24b/	.
12AA/J	24cc#/	.
.	24dd/JJ	.
12FF#/L	12ee/L	.
12AA/	24dd/L	.
.	24cc#/	.
12FF#/J	24b/	.
.	24a/JJ	.
12BB/L	12dd/L	.
12D/	24b/L	.
.	24cc#/	.
12BB/J	24dd/	.
.	24ee/JJ	.
12GG#/L	12ff#/L	.
12BB/	24ee/L	.
.	24dd/	.
12GG#/J	24cc#/	.
.	24b/JJ	.
=9	=9	=9
8C#/	[2ee/	12r
.	.	24A\LL
8r	.	24B\
.	.	24c#\
.	.	24d\JJ
4r	.	12e\L
.	.	24d\L
.	.	24c#\
.	.	24B\
.	.	24A\JJ
8D\	4ee/]	12f#\L
.	.	24B\L
8r	.	24c#\
.	.	24d\
.	.	24e\JJ
4r	4dd/	12f#\L
.	.	24e\L
.	.	24d\
.	.	24c#\
.	.	24B\JJ
=10	=10	=10
8.E/L	4dd/	12g#\L
.	.	24e\L
.	.	24f#\
.	.	24g#\
16EE/Jk	.	.
.	.	24a\JJ
8.EE/L	4dd/	12b\L
.	.	12g#\
.	.	12b\J
16EE/Jk	.	.
[4EE/	4gg#/	12dd\L
.	.	12b\
.	.	12dd\J
8EE/L]	[4bb/	12gg#\L
.	.	12dd\
24BB/L	.	.
24C#/	.	12gg#\J
24D/JJ	.	.
=11	=11	=11
8.E/L	12bb/L]	4cc#\
.	24aa/L	.
.	24gg#/	.
.	24ff#/	.
16EE/Jk	.	.
.	24ee/JJ	.
8.EE/L	12dd#/L	4a\
.	12ff#/	.
.	12dd#/J	.
16EE/Jk	.	.
4EE/	12a/L	4f#\
.	12dd#/	.
.	12a/J	.
4r	12f#/L	4d#\
.	12a/	.
.	12f#/J	.
=12	=12	=12
8r	12g#/L	8.e\L
.	12f#/	.
16r	.	.
.	12e/J	.
16E\	.	16dn\Jk
12F#\L	8.a/L	8.c#\L
12E\	.	.
12D\J	.	.
.	16dd/Jk	16a\Jk
4E\	4cc#/	4a\
4EE/	12b/L	4g#\
.	12a/	.
.	12b/J	.
=13	=13	=13
8.AA/L	12a/L	8a\
.	24cc#/L	.
.	24b/	8r
.	24a/	.
16E/Jk	.	.
.	24g#/JJ	.
[4A\	12f#/L	4r
.	24a/L	.
.	24g#/	.
.	24f#/	.
.	24e/JJ	.
12A\L]	12d#/L	4r
24B\L	12f#/	.
24A\	.	.
24G#\	12b/J	.
24F#\JJ	.	.
12E#\L	[4b/	12r
24F#\L	.	12g#\L
24E#\	.	.
24D#\	.	12e#\J
24C#\JJ	.	.
=14	=14	=14
8.F#/L	12b/L]	8c#\
.	24a/L	.
.	24g#/	8r
.	24f#/	.
16FF#/Jk	.	.
.	24e/JJ	.
[4F#\	12d/L	4r
.	24f#/L	.
.	24e/	.
.	24d/	.
.	24c#/JJ	.
12F#\L]	12B/L	4r
24Gn\L	12d/	.
24F#\	.	.
24E\	12gn/J	.
24D\JJ	.	.
12C#/L	[4g/	12r
24D/L	.	12e\L
24C#/	.	.
24BB/	.	12c#\J
24AA/JJ	.	.
=15	=15	=15
8.D/L	12g/L]	8A\
.	24f#/L	.
.	24e/	8r
.	24d/	.
16DD/Jk	.	.
.	24c#/JJ	.
[4D\	12B/L	4r
.	24d/L	.
.	24c#/	.
.	24B/	.
.	24A/JJ	.
12D/L]	12G#/L	2r
24E/L	12B/	.
24D/	.	.
24C#/	12e/J	.
24BB/JJ	.	.
12AA/L	12c#/L	.
24BB/L	12e/	.
24C#/	.	.
24D/	12a/J	.
24E/JJ	.	.
=16	=16	=16
12F#\L	8.d/L	8r
12E\	.	.
.	.	16r
12D\J	.	.
.	16b/Jk	16d\
8.E/L	12e/L	8.c#\L
.	12a/	.
.	12g#/J	.
16EE/Jk	.	16B\Jk
12AA/L	2a/	2c#\
12C#/	.	.
12E/J	.	.
4A\	.	.
*	*v	*v
=17:|!|:	=17:|!|:
*>B	*>B
*^	*
4A/	4AA\	12r
.	.	24ee\LL
.	.	24dd\
.	.	24cc#\
.	.	24b\JJ
4r	4r	12a\L
.	.	12cc#\
.	.	12a\J
2r	2r	12e/L
.	.	12a/
.	.	12e/J
.	.	12c#/L
.	.	12e/
.	.	12c#/J
*v	*v	*
=18	=18
*	*^
4r	12r	4A\
.	24a/LL	.
.	24b/	.
.	24cc#/	.
.	24dd/JJ	.
4A\	12ee/L	4c#\ 4a\
.	12cc#/	.
.	12ee/J	.
8A\	24aa/LL	8c#\ 8a\L
.	24ee/	.
.	24ff#/	.
8r	24gg#/	8d\ 8b\
.	24aa/	.
.	24gg#/JJ	.
4r	24aa/LL	8d\ 8b\
.	24ee/	.
.	24ff#/	.
.	24gg#/	8e\ 8cc#\J
.	24aa/	.
.	24gg#/JJ	.
=19	=19	=19
12r	12aa/L	8e\ 8cc#\
24e\LL	24gg#/L	.
24d\	24ff#/	8r
24c#\	24ee/	.
24B\JJ	24dd/JJ	.
12A\L	24cc#/LL	4r
.	24dd/	.
12c#\	24ee/	.
.	24dd/	.
12A\J	24cc#/	.
.	24b/JJ	.
12E\L	[2a/	2r
12A\	.	.
12E\J	.	.
12C#\L	.	.
12E\	.	.
12C#\J	.	.
*	*v	*v
=20	=20
*^	*
4r	4AA\	24a/LL]
.	.	24b/
.	.	24a/
.	.	24g#/
.	.	24a/
.	.	24e/JJ
4E/	4AA\ 4C#\	24c#/LL
.	.	24f#/
.	.	24e/
.	.	24d/
.	.	24e/
.	.	24c#/JJ
8E/	8AA\ 8C#\L	[2A/
4.r	8BB\ 8D\	.
.	8BB\ 8D\	.
.	8C#\ 8E\J	.
*v	*v	*
=21	=21
*	*^
8C#\ 8E\	8r	12A\L]
.	.	24A\L
8r	8r	24B\
.	.	24c#\
.	.	24d\JJ
8r	4r	12e\L
.	.	12c#\
16r	.	.
.	.	12e\J
16A\	.	.
12B\L	12r	8g\
24c#\L	24ee/LL	.
24B\	24dd/	8r
24A\	24cc#/	.
24B\JJ	24b/JJ	.
12c#\L	12a/L	4r
24d\L	12ee/	.
24c#\	.	.
24B\	12g/J	.
24c#\JJ	.	.
=22	=22	=22
8d\	8f#/	12r
.	.	24d\LL
8r	8r	24e\
.	.	24f#\
.	.	24g\JJ
8r	4r	12a\L
.	.	12f#\
16r	.	.
.	.	12a\J
16D\	.	.
12E\L	12r	8ccn\
24F#\L	24aa/LL	.
24E\	24gg/	8r
24D\	24ff#/	.
24E\JJ	24ee/JJ	.
12F#\L	12dd/L	4r
24G\L	12aa/	.
24F#\	.	.
24E\	12ccn/J	.
24F#\JJ	.	.
=23	=23	=23
12G\L	[2b/	8r
24B\L	.	.
24A\	.	16r
24G\	.	.
.	.	16a\
24F#\JJ	.	.
12E\L	.	8.g\L
24G\L	.	.
24F#\	.	.
24E\	.	.
.	.	16f#\Jk
24D\JJ	.	.
12C#\L	12b/L]	[4e\
12E\	24cc#/L	.
.	24b/	.
12C#\J	24a#/	.
.	24b/JJ	.
12AA#/L	4cc#/	8.e\L]
12C#/	.	.
12AA#/J	.	.
.	.	16g\Jk
=24	=24	=24
12D\L	12cc#/L	[4f#\
12F#\	24dd/L	.
.	24cc#/	.
12D\J	24b/	.
.	24cc#/JJ	.
12BB/L	[4dd/	8.f#\L]
12D/	.	.
12BB/J	.	.
.	.	16a\Jk
12E\L	12dd/L]	[4g\
12G\	24ee/L	.
.	24dd/	.
12E\J	24cc#/	.
.	24dd/JJ	.
12C#\L	[4ee/	8.g\L]
12E\	.	.
12C#\J	.	.
.	.	16b\Jk
=25	=25	=25
8.F#\L	12ee/L]	8a#\
.	24gg/L	.
.	24ff#/	8r
.	24ee/	.
16B\Jk	.	.
.	24dd#/JJ	.
12A#\L	12ee/L	4r
12B\	12gg/	.
12c#\J	12dd#/J	.
8.F#\L	12ee/L	8cc#\
.	24gg/L	.
.	24ff#/	8r
.	24ee/	.
16B\Jk	.	.
.	24dd#/JJ	.
8.A#\L	12ee/L	4r
.	24ff#/L	.
.	24ee/	.
.	24dd#/	.
16B\Jk	.	.
.	24cc#/JJ	.
=26	=26	=26
8.BB\L	8dd#/	12r
.	.	24ccn\LL
.	8r	24b\
.	.	24a\
16e\Jk	.	.
.	.	24g#\JJ
12d#\L	4r	12a\L
12e\	.	12cc\
12f#\J	.	12g#\J
8.B\L	8ff#/	12a\L
.	.	24cc\L
.	8r	24b\
.	.	24a\
16e\Jk	.	.
.	.	24g#\JJ
8.d#\L	4r	12a\L
.	.	24b\L
.	.	24a\
.	.	24gn\
16e\Jk	.	.
.	.	24f#\JJ
=27	=27	=27
24E\LL	24r	8g\
24G\	24b/LL	.
24A\	24cc#/	.
24B\	24dd#/	8r
24c#\	24ee/	.
24d#\JJ	24ff#/JJ	.
12e\L	24gg/LL	4r
.	24ff#/	.
12g\	24ee/	.
.	24ddn/	.
12e\J	24cc#/	.
.	24b/JJ	.
12c#\L	24ee/LL	2r
.	24dd/	.
12e\	24cc#/	.
.	24b/	.
12c#\J	24a/	.
.	24g#/JJ	.
12A\L	24cc#/LL	.
.	24b/	.
12c#\	24a/	.
.	24gn/	.
12A\J	24f#/	.
.	24e/JJ	.
=28	=28	=28
24D\LL	24f#/LL	2r
24F#\	24a/	.
24G\	24b/	.
24A\	24cc#/	.
24B\	24dd/	.
24c#\JJ	24ee/JJ	.
[4d\	24ff#/LL	.
.	24ee/	.
.	24dd/	.
.	24cc#/	.
.	24b/	.
.	24a/JJ	.
12d\L]	24g#/LL	12r
.	24b/	.
12c#\	24ee/	12r
.	24dd/J	.
12B\J	[12ee/J	24r
.	.	24gn\
24A#\LL	24ee/LL]	4f#\
24c#\	24a#/	.
24B\	24cc#/	.
24A#\	24dd/J	.
24G#\	[12ee/J	.
24F#\JJ	.	.
*	*v	*v
=29	=29
12B\L	24ee/LL]
.	24f#/
12F#\	24g#/
.	24a#/
12D\J	24b/
.	24cc#/JJ
12BB\L	24dd/LL
.	24cc#/
24C#\L	24b/
24D\	24an/
24E\	24gn/
24F#\JJ	24f#/JJ
24G\LL	24b/LL
24A\	24a/
24B\	24g/
24A\	24f#/
24G\	24e/
24F#\JJ	24d/JJ
24E\LL	24g/LL
24F#\	24f#/
24G\	24e/
24F#\	24d/
24G\	24c#/
24E\JJ	24e/JJ
=30	=30
*	*^
8.F#/L	12A#/L	4r
.	24gg/L	.
.	24ff#/	.
.	24ee/	.
16FF#/Jk	.	.
.	24dd/JJ	.
8.FF#/L	12cc#/L	4a#\
.	12ee/	.
.	12cc#/J	.
16FF#/Jk	.	.
4FF#/	12a#/L	4e\
.	12cc#/	.
.	12a#/J	.
12r	12e/L	[4c#\
24r	12a#/	.
24C#\LL	.	.
24D\	12e/J	.
24E\JJ	.	.
=31	=31	=31
8.F#/L	8d/	12c#\L]
.	.	24B\L
.	8r	24c#\
.	.	24d\
16FF#/Jk	.	.
.	.	24e\JJ
8.FF#/L	4b/	12f#\L
.	.	12d\
.	.	12f#\J
16FF#/Jk	.	.
4FF#/	4dd/	12b\L
.	.	12f#\
.	.	12b\J
4r	4ee#/	12dd\L
.	.	12b\
.	.	12dd\J
=32	=32	=32
12r	8.ff#/L	12cc#\L
24r	.	12a#\
24D\LL	.	.
24E\	.	12cc#\J
.	16een/Jk	.
24F#\JJ	.	.
12G\L	8.dd/L	4b\
12F#\	.	.
12E\J	.	.
.	16gg/Jk	.
4F#\	4dd/	4b\
4FF#/	12cc#/L	4a#\
.	12b/	.
.	12cc#/J	.
=33	=33	=33
8.BB\L	12b/L	8b\
.	24dd/L	.
.	24cc#/	8r
.	24b/	.
16F#\Jk	.	.
.	24a/JJ	.
[4B\	12g/L	4r
.	24b/L	.
.	24a/	.
.	24g/	.
.	24f#/JJ	.
12B\L]	12e/L	4r
24cn\L	12g/	.
24B\	.	.
24A\	12ccn/J	.
24G\JJ	.	.
12F#\L	(4cc/	12r
24G\L	.	12a\L
24F#\	.	.
24E\	.	12f#\J
24D\JJ	.	.
=34	=34	=34
24G\LL	6ccn/)	12d\
24A\	.	.
24B\	.	[6g\
24G\	.	.
24F#\	12b/	.
24G\JJ	.	.
12C#\L	[4b/	24g\LL]
.	.	24a\
12E\	.	24g\
.	.	24f#\
12C#\J	.	24e\
.	.	24d\JJ
24F#\LL	6b/]	12c#\
24G\	.	.
24A\	.	[6f#\
24F#\	.	.
24E\	12a/	.
24F#\JJ	.	.
12BB/L	[4a/	24f#\LL]
.	.	24g\
12D/	.	24f#\
.	.	24e\
12BB/J	.	24d\
.	.	24c#\JJ
=35	=35	=35
24E\LL	6a/]	12B\
24F#\	.	.
24G\	.	[6e\
24E\	.	.
24D\	12g/	.
24E\JJ	.	.
12AA/L	[4g/	24e\LL]
.	.	24f#\
12C#/	.	24e\
.	.	24d\
12AA/J	.	24c#\
.	.	24B\JJ
24D\LL	6g/]	12A\
24E\	.	.
24F#\	.	6d\
24D\	.	.
24C#\	[12f#/	.
24D\JJ	.	.
24BB/LL	12f#/L]	[4d\
24Cn/	.	.
24D/	12f#/	.
24BB/	.	.
24AA/	12ccn/J	.
24BB/JJ	.	.
=36	=36	=36
24GG/LL	4b/	12d\L]
24AA/	.	.
24BB/	.	24g\L
24AA/	.	24f#\
24GG/	.	24e\
24FF#/JJ	.	24d\JJ
24EE/LL	12b/L	12g\L
24FF#/	.	.
24GG/	12cc#/	12e\
24FF#/	.	.
24EE/	[12dd/J	[12f#\J
24DD/JJ	.	.
[4AA/	12dd/L]	12f#\L]
.	12b/	12d\
.	12cc#/J	12e\J
24AA/LL]	[4ee/	[4g\
24BB/	.	.
24C#/	.	.
24D/	.	.
24E/	.	.
24AA#/JJ	.	.
=37	=37	=37
[4BB/	12ee/L]	12g\L]
.	12cc#/	12e\
.	12dd/J	12f#\J
24BB/LL]	[4gg/	[4b\
24AAn/	.	.
24BB/	.	.
24D/	.	.
24C#/	.	.
24E/JJ	.	.
[4D\	12gg/L]	12b\L]
.	12ff#/	12a\
.	12ee/J	12g\J
24D/LL]	[4ff#/	4a\
24E/	.	.
24D/	.	.
24Cn/	.	.
24BB/	.	.
24AA/JJ	.	.
=38	=38	=38
24GG\LL	12ff#/L]	12a\L
24D\	.	.
24E\	12ee/	12g\
24F#\	.	.
24G\	12dd/J	12f#\J
24A\JJ	.	.
[4B-\	12ee/L	12g\L
.	12cc#/	12e\
.	12dd/J	12f#\J
24B-\LL]	4cc#/	4e\
24A\	.	.
24B-\	.	.
24G\	.	.
24E\	.	.
24G\JJ	.	.
24A\LL	4r	24fn\LL
24G\	.	24e\
24A\	.	24f\
24Fn\	.	24d\
24D\	.	24a\
24F\JJ	.	[24f\JJ
=39	=39	=39
24G\LL	4b-/	12f\L]
24Fn\	.	.
24G\	.	12e\
24E\	.	.
24C#\	.	(12g\J
24E\JJ	.	.
24F\LL	4a/)	12g\L
24E\	.	.
24F\	.	12c#\
24D\	.	.
24BBn\	.	[12d\J
24D\JJ	.	.
24E\LL	4g/	12d\L]
24D\	.	.
24E\	.	12c#\
24C#\	.	.
24AA\	.	[12e\J
24C#\JJ	.	.
24D\LL	4fn/	(12e\L]
24C#\	.	.
24D\	.	12A\
24F\	.	.
24BB-\	.	[12d\J
24D\JJ	.	.
*	*v	*v
=40	=40
*k[f#]	*k[f#]
*^	*^
2r	2GG#/	24fn/LL)	8B\ 8d\]
.	.	24e/	.
.	.	24d/	.
.	.	24c#/	8r
.	.	24d/	.
.	.	24fn/JJ	.
.	.	24b/LL	4r
.	.	24f/	.
.	.	24e/	.
.	.	24d/	.
.	.	24c#/	.
.	.	24B/JJ	.
24r	4AA\	8c#/	2r
24A/LL	.	.	.
24Gn/	.	.	.
24F#/	.	8r	.
24E/	.	.	.
24D/JJ	.	.	.
8C/	24r	4r	.
.	24BB\LL	.	.
.	24AA\	.	.
8r	24GGn\	.	.
.	24FF#\	.	.
.	24EE\JJ	.	.
*	*	*v	*v
=41	=41	=41
12r	4DD\	2r
24D/LL	.	.
24E/	.	.
24F#/	.	.
24G/JJ	.	.
12A/L	4r	.
12F#/	.	.
12A/J	.	.
2r	2r	12d\L
.	.	12A\
.	.	12d\J
.	.	12f#\L
.	.	12d\
.	.	12f#\J
*v	*v	*
=42	=42
*	*^
4r	4r	4a\
4D\	4ff#/	4a\
4A\	8ff#/L	(8a\L
.	8ee/	8g\)
4AA/	8ee/	(8g\
.	8dd/J	8f#\J)
=43	=43	=43
4D\	12dd/L	8f#\
.	24d/L	.
.	24e/	8r
.	24f#/	.
.	24g/JJ	.
12r	12a/L	4r
24cn\LL	12f#/	.
24B\	.	.
24A\	12a/J	.
24G\JJ	.	.
12F#\L	12ccn/L	2r
12A\	12a/	.
12F#\J	12cc/J	.
12D\L	12ff#/L	.
12F#\	12cc/	.
12D\J	12ff#/J	.
=44	=44	=44
12AA/L	4aa/	4r
12D/	.	.
12AA/J	.	.
12FF#/L	4ccn/	4a\
12AA/	.	.
12FF#/J	.	.
4DD/	(8cc/L	8a\L
.	8b/)	8g\
4D\	(8b/	8g\
.	8a/J)	8f#\J
=45	=45	=45
8.GG/L	12b/L	8g\
.	24bb/L	.
.	24aa/	8r
.	24gg/	.
16D/Jk	.	.
.	24ff#/JJ	.
8.G\L	12ee/L	4r
.	12gg/	.
.	12ee/J	.
16G\Jk	.	.
4G\	8cc#/	12r
.	.	24A\LL
.	8r	24B\
.	.	24c#\
.	.	24d\JJ
12r	4r	12e\L
24AA/LL	.	12c#\
24GG/	.	.
24FF#/	.	12e\J
24EE/JJ	.	.
=46	=46	=46
8.FF#/L	12r	8a\
.	24aa/LL	.
.	24gg/	8r
.	24ff#/	.
16F#/Jk	.	.
.	24ee/JJ	.
8.F#\L	12dd/L	4r
.	12ff#/	.
.	12dd/J	.
16F#\Jk	.	.
4F#\	8b/	12r
.	.	24G\LL
.	8r	24A\
.	.	24B\
.	.	24c#\JJ
12r	4r	12d\L
24GG/LL	.	12B\
24FF#/	.	.
24EE/	.	12d\J
24DD/JJ	.	.
=47	=47	=47
12EE/L	8r	8.g\L
24B/L	.	.
24A/	16r	.
24G/	.	.
.	16b/	16d\Jk
24F#/JJ	.	.
12E\L	8.b/L	8.g\L
12G\	.	.
12E\J	.	.
.	16b/Jk	16g\Jk
12C#\L	4a/	4g\
12E\	.	.
12C#\J	.	.
12AA/L	4r	12r
12C#/	.	24a\LL
.	.	24g\
12AA/J	.	24f#\
.	.	24e\JJ
=48	=48	=48
12D\L	4r	12f#\L
12F#\	.	24d\L
.	.	24e\
12D\J	.	24f#\
.	.	24g\JJ
12BB/L	4dd/	12a\L
12D/	.	24g\L
.	.	24f#\
12BB/J	.	24e\
.	.	24d\JJ
12E\L	4b/	12g\L
12G\	.	24e\L
.	.	24f#\
12E\J	.	24g\
.	.	24a\JJ
12C#\L	[4ee/	12b\L
12E\	.	24a\L
.	.	24g\
12C#\J	.	24f#\
.	.	24e\JJ
=49	=49	=49
12F#\L	4ee/]	8.a\L
24D\L	.	.
24E\	.	.
24F#\	.	.
.	.	16g\Jk
24G\JJ	.	.
12A\L	8.dd/L	[4f#\
24G\L	.	.
24F#\	.	.
24E\	.	.
.	16ccn/Jk	.
24D\JJ	.	.
12G\L	8.b/L	4f#\]
24E\L	.	.
24F#\	.	.
24G\	.	.
.	16a/Jk	.
24A\JJ	.	.
12B\L	[4g/	8.e\L
24A\L	.	.
24G\	.	.
24F#\	.	.
.	.	16d\Jk
24E\JJ	.	.
=50	=50	=50
8.A\L	4g/]	12c#\L
.	.	24A\L
.	.	24B\
.	.	24c#\
16AA\Jk	.	.
.	.	24d\JJ
8.AA/L	4g/	12e\L
.	.	12c#\
.	.	12e\J
16AA/Jk	.	.
[4AA/	4cc#/	12g\L
.	.	12e\
.	.	12g\J
8AA\L]	[4ee/	12cc#\L
.	.	12g\
24E\L	.	.
24F#\	.	12cc#\J
24G\JJ	.	.
=51	=51	=51
8.A\L	12ee/L]	4f#\
.	24dd/L	.
.	24cc#/	.
.	24b/	.
16AA\Jk	.	.
.	24a/JJ	.
8.AA/L	12g#/L	4d\
.	12b/	.
.	12g#/J	.
16AA/Jk	.	.
4AA/	12d/L	4B\
.	12g#/	.
.	12d/J	.
4r	12B/L	4G#\
.	12d/	.
.	12B/J	.
=52	=52	=52
12r	12c#/L	8.A\L
24r	12B/	.
24FF#/LL	.	.
24GG/	12A/J	.
.	.	16Gn\Jk
24AA/JJ	.	.
12BB/L	8.d/L	8.F#\L
12AA/	.	.
12GG/J	.	.
.	[16g/Jk	16e\Jk
8.AA\L	12g/L]	8.c#\L
.	24f#/L	.
.	24e/J	.
.	12f#/J	.
16A\Jk	.	[16d\Jk
8.A\L	8.e/L	12d\L]
.	.	24c#\L
.	.	24B\J
.	.	12c#\J
16AA\Jk	16a/Jk	.
=53	=53	=53
8.D\L	24f#/LL	16d\
.	24a/	.
.	.	16r
.	24b/	.
.	24cc#/	8r
.	24dd/	.
16A\Jk	.	.
.	24ee/JJ	.
[4d\	24ff#/LL	4r
.	24ee/	.
.	24dd/	.
.	24cc#/	.
.	24b/	.
.	24a/JJ	.
12d\L]	12g#/L	4r
24e\L	12b/	.
24d\	.	.
24c#\	12ee/J	.
24B\JJ	.	.
12A#\L	[4ee/	12r
24B\L	.	12cc#\L
24A#\	.	.
24G#\	.	12a#\J
24F#\JJ	.	.
=54	=54	=54
8.B\L	4ee/]	12f#\L
.	.	24g#\L
.	.	24a#\
.	.	24b\
16BB\Jk	.	.
.	.	24cc#\JJ
[4B\	24dd/LL	16dd\
.	24cc#/	.
.	.	16r
.	24b/	.
.	24an/	8r
.	24gn/	.
.	24f#/JJ	.
12B\L]	12e/L	4r
24cn\L	12g/	.
24B\	.	.
24A\	12ccn/J	.
24G\JJ	.	.
12F#\L	(4cc/	12r
24G\L	.	12a\L
24F#\	.	.
24E\	.	12f#\J
24D\JJ	.	.
=55	=55	=55
6G/	4ccn/)	12d\L
.	.	24e\L
.	.	24f#\
12GG/	.	24g\
.	.	24a\JJ
[4G\	24b/LL	16b\
.	24a/	.
.	.	16r
.	24g/	.
.	24f#/	8r
.	24e/	.
.	24d/JJ	.
12G\L]	12c#/L	6r
24A\L	12e/	.
24G\	.	.
24F#\	12a/J	12c#\
24E\JJ	.	.
12D\L	12f#/L	6d\
24E\L	12a/	.
24F#\	.	.
24G\	12dd/J	12f#\
24A\JJ	.	.
=56	=56	=56
12B\L	6g/	12g\L
12A\	.	12a\
12G\J	12ee/	12b\J
6A\	12a/L	6f#\
.	12dd/	.
12AA\	12cc#/J	12e\ 12g\
2DD/	2dd/	12g\L
.	.	12a\
.	.	12f#\J
.	.	4d\ 4f#\
*	*v	*v
==:|!	==:|!
*-	*-
!!!ENC: Craig Stuart Sapp
!!!END: 2008/01/28
